X:519
T: Sijile
N: C1937
O: China, Henan, Shangcheng
S: IV, 114]
R: Xiaodiao, Shiyuehuaming]
M: 2/4
L: 1/16
K: F
c2AGc2AG | AGAFc2AG | FFFGc4
AGFAG4 | GGGAF2G2 | C3DG4 | D2G2D2G2 | DCA,DC4
c2AGc2AG | AGFGFGFA | FGFAc4
AGFAG4 | GGGAD2G2 | C3DG4
D2G2D2G2 | DCA,DC4

